X: 27724
T: Morning Dream
R: slip jig
M: 9/8
K: Amixolydian
|:Ace ~g2g gfe|~c3 cde cde|Ace ~g2g gfe|cde cAG ~A3:|
|:cAG Ace aba|ge=c gag e=cB|Ace aba ge=c|dfe d=cA GA2:|

